resources/svg/domain.svg

<svg viewBox="0 0 24 24"><path fill="none" stroke="currentColor" stroke-width="2" d="M13 3v4v-4zM9 3v4v-4zM5 3v4v-4zM1 7h22H1zm0 14h22V3H1v18z"/></svg>

<svg xmlns="http://www.w3.org/2000/svg" viewBox="0 0 24 24" fill="currentColor"><path fill="none" stroke="currentColor" stroke-width="2" d="M13,3 L13,7 L13,3 Z M9,3 L9,7 L9,3 Z M5,3 L5,7 L5,3 Z M1,7 L23,7 L1,7 Z M1,21 L23,21 L23,3 L1,3 L1,21 Z"/></svg>
